!!!OTL: The First Noel
!!!COM: Unknown
!!!ODT: 1250 (13th century)
!!!YOR: The Christmas Fake Book
!!!YOY: 1990
!!!AST: Christmas song
!!!YEC: Brian Luke, 2001
**kern	**harm
*k[f#c#]	*k[f#c#]
*M3/4	*M3/4
*D:	*D:
*>A	*>A
8f#	.
8e	.
=1	=1
4.d	I
8e	.
8f#	.
8g	.
=2	=2
2a	V
8b	IV
8cc#	.
=3	=3
4dd	I
4cc#	V
4b	IV
=4	=4
2a	I
8b	V
8cc#	.
=5	=5
4dd	I
4cc#	.
4b	.
=6	=6
4a	V
4b	IV
4cc#	V
=7	=7
4dd	I
4a	.
4g	V7
=8	=8
2f#	I;
*>A	*>A
8f#	.
8e	.
=9	=9
4.d	.
8e	.
8f#	vi
8g	.
=10	=10
2a	V
8b	IV
8cc#	.
=11	=11
4dd	I
4cc#	V
4b	IV
=12	=12
2a	I
8b	V
8cc#	.
=13	=13
4dd	I
4cc#	.
4b	.
=14	=14
4a	V
4b	.
4cc#	.
=15	=15
4dd	I
4a	.
4g	V7
=16	=16
2f#	I;
*>A'	*>A'
8f#	.
8e	.
=17	=17
4.d	.
8e	.
8f#	vi
8g	.
=18	=18
2a	iii
8dd	I
8cc#	.
=19	=19
2b	IV
4b	.
=20	=20
2.a	I
.	V
=21	=21
4dd	vi
4cc#	iii
4b	IV
=22	=22
4a	I
4b	IV
4cc#	V7
=23	=23
4dd	I
4a	.
4g	V7
=24	=24
2f#	I;
*-	*-
